packages/foundations/assets/icons/functional/images/security/visibility_disabled.svg

<svg xmlns="http://www.w3.org/2000/svg" width="32" height="32" fill="none"><path fill="#1A1C1F" fill-rule="evenodd" d="M26.526 4.109c-.147.073-.906.808-2.255 2.183l-2.034 2.074-.558-.234a14.74 14.74 0 0 0-6.797-1.096c-2.004.154-3.546.574-5.309 1.443-2.557 1.262-4.753 3.253-6.913 6.268-.578.807-.653.952-.649 1.265.004.289.196.629.916 1.62a21.3 21.3 0 0 0 4.419 4.469l.653.486-1.918 1.92c-1.297 1.299-1.944 1.984-1.999 2.118-.208.504.042 1.136.521 1.318.227.086.572.067.81-.045.306-.144 22.391-22.246 22.505-22.523.151-.367.051-.88-.219-1.12-.296-.262-.808-.326-1.173-.146m-8.864 4.988c.362.046.917.142 1.232.212.611.136 1.747.495 1.745.551 0 .018-.426.473-.946 1.01l-.946.977-.212-.147c-.299-.207-.949-.471-1.446-.588-.611-.143-1.651-.132-2.278.024-1.83.455-3.233 1.89-3.702 3.785-.131.531-.118 1.671.026 2.199.156.575.305.949.521 1.307l.189.314-1.199 1.199-1.199 1.2-.31-.205c-1.635-1.082-3.414-2.826-4.619-4.53l-.299-.423.171-.237c.77-1.075 2.033-2.507 2.889-3.28 2.204-1.988 4.538-3.095 7.148-3.39.73-.082 2.511-.07 3.235.022m7.266 2.214-.691.692 1.019 1.025c1.013 1.019 1.452 1.517 2.102 2.385l.385.513c.046.062-.534.862-1.253 1.727-.516.623-1.992 2.089-2.543 2.528-1.842 1.466-3.834 2.348-6.056 2.681-.863.13-2.986.129-3.837 0l-.585-.09-.788.787c-.433.432-.788.802-.788.822 0 .054 1.28.351 1.918.446 1.292.192 3.108.193 4.366.002a14.5 14.5 0 0 0 6.116-2.424c1.862-1.298 3.83-3.363 5.348-5.613.434-.644.453-.899.111-1.465-.269-.444-1.32-1.829-1.853-2.44-.51-.585-1.644-1.734-2.036-2.063l-.243-.204zm-8.261 1.758c.117.031.305.095.416.143l.204.087-1.963 1.964c-1.08 1.08-1.98 1.964-2 1.964s-.089-.138-.152-.307c-.147-.386-.195-1.069-.109-1.518.205-1.058 1.104-2.025 2.143-2.304.339-.091 1.157-.107 1.461-.029m1.469 5.035c-1.539 1.539-2.782 2.814-2.763 2.834.02.019.319.034.665.032 2.315-.011 4.314-1.625 4.839-3.907.105-.453.152-1.181.099-1.504l-.043-.253z"/></svg>

<svg width="32" height="32" viewBox="0 0 32 32" fill="none" xmlns="http://www.w3.org/2000/svg"><path d="M26.526 4.109 C 26.379 4.182,25.620 4.917,24.271 6.292 L 22.237 8.366 21.679 8.132 C 19.544 7.237,17.191 6.858,14.882 7.036 C 12.878 7.190,11.336 7.610,9.573 8.479 C 7.016 9.741,4.820 11.732,2.660 14.747 C 2.082 15.554,2.007 15.699,2.011 16.012 C 2.015 16.301,2.207 16.641,2.927 17.632 C 4.135 19.296,5.692 20.870,7.346 22.101 L 7.999 22.587 6.081 24.507 C 4.784 25.806,4.137 26.491,4.082 26.625 C 3.874 27.129,4.124 27.761,4.603 27.943 C 4.830 28.029,5.175 28.010,5.413 27.898 C 5.719 27.754,27.804 5.652,27.918 5.375 C 28.069 5.008,27.969 4.495,27.699 4.255 C 27.403 3.993,26.891 3.929,26.526 4.109 M17.662 9.097 C 18.024 9.143,18.579 9.239,18.894 9.309 C 19.505 9.445,20.641 9.804,20.639 9.860 C 20.639 9.878,20.213 10.333,19.693 10.870 L 18.747 11.847 18.535 11.700 C 18.236 11.493,17.586 11.229,17.089 11.112 C 16.478 10.969,15.438 10.980,14.811 11.136 C 12.981 11.591,11.578 13.026,11.109 14.921 C 10.978 15.452,10.991 16.592,11.135 17.120 C 11.291 17.695,11.440 18.069,11.656 18.427 L 11.845 18.741 10.646 19.940 L 9.447 21.140 9.137 20.935 C 7.502 19.853,5.723 18.109,4.518 16.405 L 4.219 15.982 4.390 15.745 C 5.160 14.670,6.423 13.238,7.279 12.465 C 9.483 10.477,11.817 9.370,14.427 9.075 C 15.157 8.993,16.938 9.005,17.662 9.097 M24.928 11.311 L 24.237 12.003 25.256 13.028 C 26.269 14.047,26.708 14.545,27.358 15.413 C 27.545 15.663,27.718 15.893,27.743 15.926 C 27.789 15.988,27.209 16.788,26.490 17.653 C 25.974 18.276,24.498 19.742,23.947 20.181 C 22.105 21.647,20.113 22.529,17.891 22.862 C 17.028 22.992,14.905 22.991,14.054 22.862 L 13.469 22.772 12.681 23.559 C 12.248 23.991,11.893 24.361,11.893 24.381 C 11.893 24.435,13.173 24.732,13.811 24.827 C 15.103 25.019,16.919 25.020,18.177 24.829 C 20.395 24.492,22.491 23.661,24.293 22.405 C 26.155 21.107,28.123 19.042,29.641 16.792 C 30.075 16.148,30.094 15.893,29.752 15.327 C 29.483 14.883,28.432 13.498,27.899 12.887 C 27.389 12.302,26.255 11.153,25.863 10.824 L 25.620 10.620 24.928 11.311 M16.667 13.069 C 16.784 13.100,16.972 13.164,17.083 13.212 L 17.287 13.299 15.324 15.263 C 14.244 16.343,13.344 17.227,13.324 17.227 C 13.304 17.227,13.235 17.089,13.172 16.920 C 13.025 16.534,12.977 15.851,13.063 15.402 C 13.268 14.344,14.167 13.377,15.206 13.098 C 15.545 13.007,16.363 12.991,16.667 13.069 M18.136 18.104 C 16.597 19.643,15.354 20.918,15.373 20.938 C 15.393 20.957,15.692 20.972,16.038 20.970 C 18.353 20.959,20.352 19.345,20.877 17.063 C 20.982 16.610,21.029 15.882,20.976 15.559 L 20.933 15.306 18.136 18.104 " fill="#1A1C1F" stroke="none" fill-rule="evenodd"></path></svg>
